public/images/home/bluedjango.svg

<svg width="106" height="133" viewBox="0 0 106 133" fill="none" xmlns="http://www.w3.org/2000/svg">
<path d="M34.2685 10.4077L55.2037 6.71622L72.248 103.379C61.8686 107.308 54.1258 109.512 45.5595 111.022C19.9995 115.529 4.6443 106.353 0.746626 84.2486C-3.00764 62.9571 8.69215 46.6344 30.578 42.7753C33.9781 42.1758 36.607 41.9906 39.8765 42.2527L34.2685 10.4077ZM42.8487 59.068C40.2592 58.686 38.1715 58.7758 35.5902 59.2309C24.9873 61.1005 20.0143 68.6862 22.0233 80.0795C23.984 91.1994 30.906 96.2701 41.6443 94.3767C44.0555 93.9469 46.4322 93.3417 48.7553 92.5661L42.8487 59.068ZM94.1988 33.0989L102.735 81.51C105.676 98.1916 105.861 106.402 103.449 113.965C101.221 121.209 97.4761 126.205 89.0461 132.445L67.98 126.649C76.461 120.679 80.2748 116.095 82.1014 109.757C84.0401 103.263 83.7749 96.1796 80.5705 78.0064L73.3085 36.8216L94.1988 33.0989ZM67.5974 4.65577L88.5326 0.964339L92.3161 22.422L71.381 26.1134L67.5974 4.65577Z" fill="#8AB4F8"/>
</svg>

<svg xmlns="http://www.w3.org/2000/svg" width="106" height="133" fill="none" viewBox="0 0 106 133"><path fill="#8ab4f8" d="m34.269 10.408 20.935-3.692 17.044 96.663c-10.38 3.929-18.122 6.133-26.689 7.643C20 115.529 4.645 106.353.748 84.249c-3.755-21.292 7.945-37.615 29.831-41.474 3.4-.6 6.029-.784 9.299-.522zm8.58 48.66c-2.59-.382-4.677-.292-7.259.163-10.603 1.87-15.576 9.455-13.567 20.848 1.961 11.12 8.883 16.191 19.621 14.298a50 50 0 0 0 7.111-1.81zm51.35-25.97 8.536 48.412c2.941 16.682 3.126 24.892.714 32.455-2.228 7.244-5.973 12.24-14.403 18.48l-21.066-5.796c8.481-5.97 12.295-10.554 14.121-16.892 1.94-6.494 1.674-13.577-1.53-31.75l-7.263-41.185zM67.597 4.657 88.533.964l3.783 21.458-20.935 3.691z"/></svg>
